X: 3
T: Ramnee Ceilidh
R: reel
M: 4/4
L: 1/8
K: Gmaj
GEEG D2GA|BGcB ABGA|B2dB A2BA|G3A GEED|GEEG D2GA|BGcB ABGA|B2dB A2BA|1GEDE G3A:|2GEDE GDEG||B3D EGA2|-ADEG AGEG|B3D EGA2|-ABcB AGEG|B3D EGA2|-ADEG AGEG|B2dB A2BA|1GEDE GDEG:|2GEDE G3A||


Tune 2639	Setting 25701

